X: 22305
T: La Roulante
R: barndance
M: 4/4
K: Dmixolydian
|:d2 A2 c3 B|A2 F2 G2 FG|A2 A2 ABAG|F2 A2 E4|
d2 A2 c3 B|A2 F2 G2 FG|A2 A2 ABAG|1 F2 E2 D4:|2 F2 E2 D2||
|:EF|G2 E2 BGEB|GE B2 B2 AG|F2 D2 AFDA|FD A2 A2 GF|
G2 E2 BGEB|GE B2 B2 AG|A2 A2 ABAG|1 F2 E2 D2:|2 F2 E2 D4||

